src/icons/solid/communication/headset.svg

<svg width="24" height="24" viewBox="0 0 24 24" fill="none" xmlns="http://www.w3.org/2000/svg">
<g clip-path="url(#clip0_4787_646)">
<path fill-rule="evenodd" clip-rule="evenodd" d="M19.6966 8.86284C19.9576 8.86284 20.1986 8.89263 20.4396 8.95219C20.2187 4.53431 16.5336 1 12.0051 1C7.47657 1 3.78145 4.53431 3.56055 8.95219C3.80153 8.89263 4.05256 8.86284 4.30359 8.86284H5.00646C5.02654 8.86284 5.05667 8.86284 5.08679 8.87277C5.32778 5.30868 8.35014 2.48917 12.0051 2.48917C15.66 2.48917 18.6724 5.30868 18.9134 8.87277C18.9149 8.87226 18.9165 8.87177 18.9182 8.87131C18.9165 8.8718 18.9149 8.87232 18.9132 8.87287C18.4312 8.90266 17.0958 9.23028 17.0958 10.0543V16.974C17.0958 17.8179 18.4915 18.1256 18.9433 18.1455V18.354C18.9433 19.4659 18.0296 20.3792 16.8949 20.3792H15.1377C14.8566 19.7041 14.1838 19.2375 13.4006 19.2375H10.5992C9.55491 19.2375 8.70142 20.0913 8.70142 21.1238C8.70142 22.1563 9.55491 23.0002 10.5992 23.0002H13.4006C14.1738 23.0002 14.8466 22.5336 15.1377 21.8684H16.8949C18.8529 21.8684 20.4495 20.2899 20.4495 18.354V18.066C21.9054 17.7285 22.9999 16.4379 22.9999 14.8991V12.1292C22.9999 10.5805 21.9054 9.27991 20.4394 8.9523C20.1985 8.89273 19.9575 8.86295 19.6964 8.86295H18.9935C18.9914 8.86295 18.9892 8.86295 18.9869 8.86296C18.9911 8.86284 18.9937 8.86284 18.9937 8.86284H19.6966ZM6.90415 10.0543V16.974C6.90415 17.8476 5.38795 18.1554 5.00639 18.1554H4.30351C2.48608 18.1554 1 16.696 1 14.8991V12.1292C1 10.5805 2.09448 9.27991 3.56047 8.9523C3.80146 8.89273 4.05249 8.86295 4.30351 8.86295H5.00639C5.00639 8.86295 5.0566 8.86295 5.08672 8.87287C5.56869 8.90266 6.90415 9.23028 6.90415 10.0543Z" fill="#3C3B44"/>
</g>
<defs>
<clipPath id="clip0_4787_646">
<rect width="24" height="24" fill="white"/>
</clipPath>
</defs>
</svg>

<svg xmlns="http://www.w3.org/2000/svg" width="24" height="24" fill="none" viewBox="0 0 24 24"><g clip-path="url(#a)"><path fill="currentColor" fill-rule="evenodd" d="M19.697 8.863c.26 0 .502.03.743.09C20.219 4.533 16.534 1 12.005 1 7.477 1 3.781 4.534 3.561 8.952c.24-.06.492-.09.743-.09h.702c.02 0 .05 0 .08.01.242-3.563 3.264-6.383 6.92-6.383 3.654 0 6.666 2.82 6.907 6.384l.005-.002-.005.002c-.482.03-1.817.357-1.817 1.181v6.92c0 .844 1.395 1.152 1.847 1.171v.209a2.04 2.04 0 0 1-2.048 2.025h-1.757a1.87 1.87 0 0 0-1.737-1.142h-2.802a1.9 1.9 0 0 0-1.898 1.887c0 1.032.854 1.876 1.898 1.876h2.802a1.9 1.9 0 0 0 1.737-1.132h1.757c1.958 0 3.555-1.578 3.555-3.514v-.288c1.455-.337 2.55-1.628 2.55-3.167v-2.77a3.27 3.27 0 0 0-2.56-3.177 3 3 0 0 0-.744-.09h-.703l-.006.001zM6.904 10.054v6.92c0 .874-1.516 1.181-1.898 1.181h-.702C2.486 18.155 1 16.696 1 14.9v-2.77a3.266 3.266 0 0 1 2.56-3.177c.241-.06.492-.09.744-.09h.702s.05 0 .08.01c.483.03 1.818.358 1.818 1.182" clip-rule="evenodd"/></g><defs><clipPath id="a"><path fill="currentColor" d="M0 0h24v24H0z"/></clipPath></defs></svg>
